symbols/web/tablet/materialsymbolssharp/tablet_wght700gradN25_48px.svg

<svg xmlns="http://www.w3.org/2000/svg" height="48" width="48"><path d="M1.1 41V6.9h45.8V41Zm9-4.55h27.8v-24.9H10.1Zm-4.4 0h1.55v-24.9H5.7Zm35.1 0h1.55v-24.9H40.8ZM5.7 11.55h1.55Zm35.1 0h1.55Z"/></svg>

<svg xmlns="http://www.w3.org/2000/svg" height="48" width="48"><path d="M1.1 41V6.9H46.9V41ZM10.1 36.45H37.9V11.55H10.1ZM5.7 36.45H7.25V11.55H5.7ZM40.8 36.45H42.35V11.55H40.8ZM5.7 11.55H7.25ZM40.8 11.55H42.35Z"/></svg>
